; generated by Slic3r Prusa Edition 1.39.2+ on 2018-07-27 at 11:06:04

; 

; external perimeters extrusion width = 0.45mm
; perimeters extrusion width = 0.45mm
; infill extrusion width = 0.45mm
; solid infill extrusion width = 0.45mm
; top infill extrusion width = 0.40mm
; first layer extrusion width = 0.42mm

M107
M115 U3.1.1-RC5 ; tell printer latest fw version
M201 X1000 Y1000 Z200 E5000 ; sets maximum accelerations, mm/sec^2
M203 X200 Y200 Z12 E120 ; sets maximum feedrates, mm/sec
M204 S1250 T1250 ; sets acceleration (S) and retract acceleration (T)
M205 X10 Y10 Z0.4 E2.5 ; sets the jerk limits, mm/sec
M205 S0 T0 ; sets the minimum extruding and travel feed rate, mm/sec
M83  ; extruder relative mode
M104 S215 ; set extruder temp
M140 S60 ; set bed temp
M190 S60 ; wait for bed temp
M109 S215 ; wait for extruder temp
G28 W ; home all without mesh bed level
G80 ; mesh bed leveling
G1 Y-3.0 F1000.0 ; go outside print area
G92 E0.0
G1 X60.0 E9.0  F1000.0 ; intro line
G1 X100.0 E12.5  F1000.0 ; intro line
G92 E0.0
M221 S95
M900 K30; Filament gcode
G21 ; set units to millimeters
G90 ; use absolute coordinates
M83 ; use relative distances for extrusion
;BEFORE_LAYER_CHANGE
;0.2


G1 E-0.80000 F2100.00000
G1 Z0.600 F10200.000
;AFTER_LAYER_CHANGE
;0.2
G1 X119.905 Y98.148
G1 Z0.200
G1 E0.80000 F2100.00000
M204 S1000
G1 F900
G1 X120.417 Y97.561 E0.02442
G1 X121.048 Y97.086 E0.02476
G1 X121.773 Y96.745 E0.02514
G1 X122.555 Y96.548 E0.02527
G1 X123.486 Y96.479 E0.02928
G1 X125.641 Y96.714 E0.06798
G1 X127.928 Y97.332 E0.07426
G1 X129.863 Y98.198 E0.06649
G1 X131.309 Y99.217 E0.05546
G1 X132.474 Y100.493 E0.05417
G1 X132.973 Y101.283 E0.02929
G1 X133.338 Y102.051 E0.02667
G1 X133.631 Y102.921 E0.02877
G1 X133.815 Y103.805 E0.02832
G1 X133.881 Y105.598 E0.05625
G1 X133.768 Y106.480 E0.02789
G1 X133.548 Y107.362 E0.02849
G1 X133.217 Y108.229 E0.02910
G1 X132.827 Y108.972 E0.02630
G1 X132.339 Y109.687 E0.02713
G1 X131.713 Y110.403 E0.02985
G1 X130.339 Y111.515 E0.05541
G1 X129.189 Y112.152 E0.04122
G1 X128.205 Y112.510 E0.03282
G1 X122.795 Y113.148 E0.17082
G1 X122.219 Y113.157 E0.01807
G1 X121.213 Y112.909 E0.03247
G1 X120.344 Y112.346 E0.03247
G1 X119.689 Y111.507 E0.03335
G1 X119.289 Y110.480 E0.03456
G1 X119.139 Y109.444 E0.03282
G1 X119.059 Y106.974 E0.07750
G1 X119.055 Y103.295 E0.11536
G1 X119.143 Y100.499 E0.08769
G1 X119.267 Y99.616 E0.02796
G1 X119.509 Y98.861 E0.02487
G1 X119.876 Y98.201 E0.02369
G1 F8160
G1 X120.417 Y97.561 E-0.20479
G1 X121.048 Y97.086 E-0.19308
G1 X121.773 Y96.745 E-0.19601
G1 X122.432 Y96.579 E-0.16612
G1 E-0.04000 F2100.00000
G1 Z0.800 F10200.000
G1 X119.685 Y99.496
G1 Z0.200
G1 E0.80000 F2100.00000
G1 F900
G1 X119.903 Y98.903 E0.01981
G1 X120.213 Y98.367 E0.01942
G1 X120.603 Y97.904 E0.01897
G1 X121.057 Y97.528 E0.01848
G1 X121.576 Y97.232 E0.01875
G1 X122.155 Y97.020 E0.01932
G1 X123.483 Y96.856 E0.04195
G1 X125.063 Y96.996 E0.04972
G1 X126.928 Y97.409 E0.05991
G1 X128.530 Y97.967 E0.05318
G1 X129.851 Y98.626 E0.04629
G1 X130.940 Y99.397 E0.04184
G1 X131.871 Y100.331 E0.04133
G1 X132.595 Y101.380 E0.03998
G1 X133.148 Y102.627 E0.04276
G1 X133.466 Y104.033 E0.04520
G1 X133.507 Y105.539 E0.04726
G1 X133.272 Y106.960 E0.04515
G1 X132.785 Y108.261 E0.04357
G1 X132.052 Y109.442 E0.04355
G1 X131.060 Y110.499 E0.04547
G1 X129.897 Y111.346 E0.04512
G1 X128.442 Y112.059 E0.05081
G1 X122.753 Y112.773 E0.17977
G1 X122.021 Y112.754 E0.02294
G1 X121.261 Y112.516 E0.02498
G1 X120.598 Y112.067 E0.02511
G1 X120.097 Y111.458 E0.02472
G1 X119.731 Y110.658 E0.02758
G1 X119.509 Y109.319 E0.04256
G1 X119.422 Y105.573 E0.11748
G1 X119.488 Y101.097 E0.14037
G1 X119.678 Y99.556 E0.04869
G1 X120.027 Y99.677 F10200.000
G1 F900
G1 X120.480 Y98.644 E0.03536
G1 X120.844 Y98.196 E0.01811
G1 X121.258 Y97.848 E0.01696
G1 X122.259 Y97.383 E0.03461
G1 X123.484 Y97.233 E0.03870
G1 X125.007 Y97.369 E0.04794
G1 X126.823 Y97.772 E0.05833
G1 X128.382 Y98.313 E0.05173
G1 X129.646 Y98.944 E0.04429
G1 X130.696 Y99.685 E0.04028
G1 X131.574 Y100.565 E0.03900
G1 X132.263 Y101.557 E0.03787
G1 X132.784 Y102.725 E0.04010
G1 X133.091 Y104.074 E0.04336
G1 X133.132 Y105.508 E0.04500
G1 X132.909 Y106.861 E0.04299
G1 X132.451 Y108.086 E0.04101
G1 X131.754 Y109.211 E0.04148
G1 X130.813 Y110.215 E0.04314
G1 X129.710 Y111.018 E0.04278
G1 X128.343 Y111.694 E0.04781
G1 X122.722 Y112.397 E0.17762
G1 X122.148 Y112.392 E0.01799
G1 X121.480 Y112.202 E0.02178
G1 X120.893 Y111.825 E0.02190
G1 X120.443 Y111.300 E0.02169
G1 X120.116 Y110.618 E0.02372
G1 X119.892 Y109.403 E0.03873
G1 X119.803 Y106.139 E0.10239
G1 X119.848 Y101.542 E0.14412
G1 X120.022 Y99.737 E0.05687
G1 F8160
G1 X120.480 Y98.644 E-0.28972
G1 X120.844 Y98.196 E-0.14120
G1 X121.258 Y97.848 E-0.13223
G1 X121.988 Y97.508 E-0.19686
G1 E-0.04000 F2100.00000
G1 Z0.800 F10200.000
G1 X123.919 Y102.426
G1 Z0.200
G1 E0.80000 F2100.00000
G1 F900
G1 X124.692 Y102.467 E0.02428
G1 X125.408 Y102.580 E0.02271
G1 X126.061 Y102.739 E0.02109
G1 X126.635 Y102.940 E0.01906
G1 X127.020 Y103.128 E0.01345
G1 X127.338 Y103.345 E0.01206
G1 X127.588 Y103.583 E0.01083
G1 X127.818 Y103.896 E0.01217
G1 X127.980 Y104.247 E0.01214
G1 X128.081 Y104.682 E0.01398
G1 X128.098 Y105.137 E0.01430
G1 X128.031 Y105.583 E0.01412
G1 X127.898 Y105.956 E0.01242
G1 X127.690 Y106.295 E0.01247
G1 X127.416 Y106.588 E0.01259
G1 X127.067 Y106.844 E0.01356
G1 X126.692 Y107.036 E0.01322
G1 X126.226 Y107.211 E0.01560
G1 X125.634 Y107.372 E0.01922
G1 X124.973 Y107.496 E0.02109
G1 X124.221 Y107.583 E0.02375
G1 X123.920 Y107.574 E0.00944
G1 X123.851 Y107.143 E0.01367
G1 X123.777 Y105.913 E0.03865
G1 X123.770 Y104.351 E0.04896
G1 X123.844 Y102.928 E0.04470
G1 X123.910 Y102.485 E0.01403
G1 X123.595 Y102.178 F10200.000
G1 F900
G1 X123.667 Y102.103 E0.00327
G1 X123.870 Y102.050 E0.00657
G1 X124.053 Y102.044 E0.00574
G1 X124.735 Y102.092 E0.02142
G1 X125.482 Y102.210 E0.02370
G1 X126.168 Y102.377 E0.02216
G1 X126.780 Y102.591 E0.02034
G1 X127.210 Y102.802 E0.01500
G1 X127.575 Y103.051 E0.01386
G1 X127.872 Y103.333 E0.01283
G1 X128.138 Y103.694 E0.01406
G1 X128.337 Y104.123 E0.01484
G1 X128.410 Y104.375 E0.00823
G1 X128.456 Y104.633 E0.00821
G1 X128.475 Y105.158 E0.01646
G1 X128.449 Y105.419 E0.00823
G1 X128.397 Y105.676 E0.00821
G1 X128.237 Y106.121 E0.01482
G1 X128.106 Y106.358 E0.00850
G1 X127.984 Y106.533 E0.00670
G1 X127.667 Y106.872 E0.01454
G1 X127.266 Y107.166 E0.01560
G1 X126.844 Y107.381 E0.01484
G1 X126.342 Y107.570 E0.01683
G1 X125.719 Y107.740 E0.02025
G1 X125.030 Y107.869 E0.02198
G1 X124.237 Y107.960 E0.02503
G1 X123.861 Y107.949 E0.01179
G1 X123.757 Y107.932 E0.00331
G1 X123.632 Y107.870 E0.00438
G1 X123.600 Y107.828 E0.00165
G1 X123.537 Y107.606 E0.00722
G1 X123.476 Y107.181 E0.01346
G1 X123.400 Y105.925 E0.03946
G1 X123.393 Y104.346 E0.04952
G1 X123.421 Y103.558 E0.02471
G1 X123.468 Y102.886 E0.02111
G1 X123.577 Y102.235 E0.02070
G1 X123.699 Y102.181 F10200.000
G1 F8160
G1 X123.667 Y102.103 E-0.03914
G1 X123.870 Y102.050 E-0.05123
G1 X124.053 Y102.044 E-0.04479
G1 X124.735 Y102.092 E-0.16701
G1 X125.482 Y102.210 E-0.18482
G1 X126.168 Y102.377 E-0.17277
G1 X126.555 Y102.512 E-0.10024
G1 E-0.04000 F2100.00000
G1 Z0.800 F10200.000
G1 X126.674 Y103.085
G1 Z0.200
G1 E0.80000 F2100.00000
G1 F900
G1 X127.873 Y104.284 E0.05639
G1 X127.978 Y104.955 F10200.000
G1 F900
G1 X126.062 Y103.039 E0.09009
G1 X125.308 Y102.851 E0.02585
G1 X127.791 Y105.333 E0.11677
G1 X127.698 Y105.699 E0.01255
G1 X127.662 Y105.770 E0.00265
G1 X124.640 Y102.748 E0.14216
G1 X124.160 Y102.722 E0.01597
G1 X124.146 Y102.819 E0.00327
G1 X127.457 Y106.130 E0.15573
G1 X127.175 Y106.414 E0.01330
G1 X124.105 Y103.344 E0.14437
G1 X124.077 Y103.882 E0.01791
G1 X126.838 Y106.643 E0.12985
G1 X126.453 Y106.823 E0.01415
G1 X124.053 Y104.423 E0.11287
G1 X124.056 Y104.992 E0.01890
G1 X126.034 Y106.970 E0.09303
G1 X125.589 Y107.091 E0.01532
G1 X124.058 Y105.560 E0.07201
G1 X124.074 Y106.141 E0.01935
G1 X125.114 Y107.181 E0.04892
G1 X124.619 Y107.252 E0.01663
G1 X123.930 Y106.562 E0.03243
M106 S255
;BEFORE_LAYER_CHANGE
;0.35


G1 F8160
G1 X124.619 Y107.252 E-0.23841
G1 X125.114 Y107.181 E-0.12228
G1 X124.074 Y106.141 E-0.35963
G1 X124.070 Y105.979 E-0.03968
G1 E-0.04000 F2100.00000
G1 Z0.800 F10200.000
;AFTER_LAYER_CHANGE
;0.35
M104 S210 ; set temperature
G1 X120.344 Y112.346
G1 Z0.350
G1 E0.80000 F2100.00000
G1 F900
G1 X119.689 Y111.507 E0.02573
G1 X119.289 Y110.480 E0.02666
G1 X119.139 Y109.444 E0.02532
G1 X119.059 Y106.974 E0.05978
G1 X119.055 Y103.295 E0.08898
G1 X119.143 Y100.499 E0.06764
G1 X119.267 Y99.616 E0.02157
G1 X119.509 Y98.861 E0.01919
G1 X119.905 Y98.148 E0.01972
G1 X120.417 Y97.561 E0.01884
G1 X121.048 Y97.086 E0.01910
G1 X121.773 Y96.745 E0.01939
G1 X122.555 Y96.548 E0.01949
G1 X123.486 Y96.479 E0.02259
G1 X125.641 Y96.714 E0.05243
G1 X127.928 Y97.332 E0.05728
G1 X129.863 Y98.198 E0.05129
G1 X131.309 Y99.217 E0.04278
G1 X132.474 Y100.493 E0.04178
G1 X132.973 Y101.283 E0.02259
G1 X133.338 Y102.051 E0.02057
G1 X133.631 Y102.921 E0.02219
G1 X133.815 Y103.805 E0.02184
G1 X133.881 Y105.598 E0.04339
G1 X133.768 Y106.480 E0.02152
G1 X133.548 Y107.362 E0.02197
G1 X133.217 Y108.229 E0.02244
G1 X132.827 Y108.972 E0.02029
G1 X132.339 Y109.687 E0.02093
G1 X131.713 Y110.403 E0.02303
G1 X130.339 Y111.515 E0.04274
G1 X129.189 Y112.152 E0.03180
G1 X128.205 Y112.510 E0.02531
G1 X122.795 Y113.148 E0.13176
G1 X122.219 Y113.157 E0.01394
G1 X121.213 Y112.909 E0.02505
G1 X120.394 Y112.379 E0.02360
G1 F8160
G1 X119.689 Y111.507 E-0.27397
G1 X119.289 Y110.480 E-0.26948
G1 X119.162 Y109.604 E-0.21655
G1 E-0.04000 F2100.00000
G1 Z0.950 F10200.000
G1 X124.231 Y108.000
G1 Z0.350
G1 E0.80000 F2100.00000
M204 S800
G1 F900
G1 X123.852 Y108.127 E0.01040
G1 X123.508 Y108.285 E0.00987
G1 X123.252 Y108.436 E0.00773
G1 X123.194 Y107.247 E0.03101
G1 X123.168 Y105.987 E0.03283
G1 X123.183 Y103.191 E0.07287
G1 X123.224 Y101.964 E0.03197
G1 X123.273 Y101.288 E0.01767
G1 X123.326 Y101.027 E0.00695
G1 X123.498 Y100.996 E0.00454
G1 X124.078 Y101.008 E0.01513
G1 X124.615 Y101.072 E0.01408
G1 X125.137 Y101.165 E0.01381
G1 X125.697 Y101.293 E0.01498
G1 X126.652 Y101.587 E0.02604
G1 X127.115 Y101.773 E0.01299
G1 X127.775 Y102.112 E0.01935
G1 X128.058 Y102.300 E0.00886
G1 X128.310 Y102.499 E0.00835
G1 X128.531 Y102.709 E0.00794
G1 X128.722 Y102.925 E0.00752
G1 X128.932 Y103.216 E0.00934
G1 X129.065 Y103.446 E0.00694
G1 X129.204 Y103.756 E0.00885
G1 X129.308 Y104.072 E0.00867
G1 X129.378 Y104.398 E0.00868
G1 X129.417 Y104.728 E0.00865
G1 X129.424 Y105.135 E0.01061
G1 X129.388 Y105.539 E0.01058
G1 X129.324 Y105.863 E0.00861
G1 X129.227 Y106.181 E0.00867
G1 X129.097 Y106.490 E0.00873
G1 X128.930 Y106.787 E0.00888
G1 X128.725 Y107.072 E0.00916
G1 X128.476 Y107.347 E0.00965
G1 X128.252 Y107.549 E0.00785
G1 X127.918 Y107.797 E0.01083
G1 X127.622 Y107.977 E0.00903
G1 X126.967 Y108.288 E0.01890
G1 X126.608 Y108.122 E0.01030
G1 X125.955 Y107.929 E0.01774
G1 X125.398 Y107.865 E0.01461
G1 X124.922 Y107.875 E0.01241
G1 X124.582 Y107.918 E0.00893
G1 X124.289 Y107.986 E0.00784
M204 S1000
G1 X124.953 Y108.292 F10200.000
M204 S800
G1 F900
G1 X124.656 Y108.330 E0.00779
G1 X124.345 Y108.402 E0.00833
G1 X124.006 Y108.516 E0.00930
G1 X123.702 Y108.656 E0.00874
G1 X123.407 Y108.829 E0.00891
G1 X123.167 Y109.005 E0.00774
G1 X122.969 Y109.192 E0.00709
G1 X122.944 Y109.149 E0.00131
G1 X122.873 Y108.875 E0.00738
G1 X122.822 Y108.317 E0.01460
G1 X122.777 Y107.260 E0.02756
G1 X122.751 Y105.990 E0.03309
G1 X122.765 Y103.182 E0.07316
G1 X122.807 Y101.942 E0.03233
G1 X122.857 Y101.241 E0.01832
G1 X122.892 Y101.019 E0.00586
G1 X122.942 Y100.853 E0.00452
G1 X122.994 Y100.761 E0.00274
G1 X123.058 Y100.695 E0.00239
G1 X123.263 Y100.609 E0.00580
G1 X123.697 Y100.571 E0.01135
G1 X124.113 Y100.591 E0.01086
G1 X124.676 Y100.659 E0.01477
G1 X125.220 Y100.755 E0.01439
G1 X125.801 Y100.889 E0.01554
G1 X126.401 Y101.060 E0.01626
G1 X126.798 Y101.195 E0.01091
G1 X127.283 Y101.390 E0.01362
G1 X127.650 Y101.564 E0.01059
G1 X127.993 Y101.755 E0.01022
G1 X128.304 Y101.962 E0.00974
G1 X128.583 Y102.183 E0.00928
G1 X128.832 Y102.418 E0.00890
G1 X129.049 Y102.663 E0.00855
G1 X129.283 Y102.989 E0.01045
G1 X129.437 Y103.256 E0.00803
G1 X129.594 Y103.605 E0.00997
G1 X129.711 Y103.963 E0.00981
G1 X129.791 Y104.329 E0.00976
G1 X129.834 Y104.700 E0.00972
G1 X129.842 Y105.150 E0.01173
G1 X129.802 Y105.598 E0.01173
G1 X129.730 Y105.964 E0.00973
G1 X129.621 Y106.324 E0.00980
G1 X129.472 Y106.674 E0.00991
G1 X129.283 Y107.012 E0.01009
G1 X129.050 Y107.336 E0.01038
G1 X128.772 Y107.643 E0.01081
G1 X128.517 Y107.873 E0.00893
G1 X128.151 Y108.144 E0.01187
G1 X127.825 Y108.342 E0.00994
G1 X127.422 Y108.547 E0.01178
G1 X126.935 Y108.753 E0.01379
G1 X126.461 Y108.514 E0.01384
G1 X125.871 Y108.340 E0.01601
G1 X125.378 Y108.283 E0.01293
G1 X125.013 Y108.291 E0.00953
M204 S1000
G1 X124.786 Y108.044 F10200.000
G1 F8160
G1 X124.656 Y108.330 E-0.08774
G1 X124.345 Y108.402 E-0.07818
G1 X124.006 Y108.516 E-0.08722
G1 X123.702 Y108.656 E-0.08200
G1 X123.407 Y108.829 E-0.08361
G1 X123.167 Y109.005 E-0.07264
G1 X122.969 Y109.192 E-0.06654
G1 X122.944 Y109.149 E-0.01226
G1 X122.873 Y108.875 E-0.06925
G1 X122.828 Y108.384 E-0.12056
G1 E-0.04000 F2100.00000
G1 Z0.950 F10200.000
G1 X123.295 Y106.059
G1 Z0.350
G1 E0.80000 F2100.00000
G1 F1800
G1 X123.876 Y107.794 E0.08612
G1 X124.288 Y107.670 E0.02024
G1 X123.480 Y105.261 E0.11959
G1 X123.487 Y103.930 E0.06267
G1 X124.714 Y107.590 E0.18173
G1 X125.158 Y107.561 E0.02092
G1 X123.510 Y102.645 E0.24407
G1 X123.569 Y101.470 E0.05541
G1 X125.617 Y107.580 E0.30334
G1 X126.093 Y107.648 E0.02265
G1 X123.969 Y101.311 E0.31463
G1 X124.439 Y101.362 E0.02226
G1 X126.597 Y107.797 E0.31951
G1 X126.965 Y107.947 E0.01873
G1 X127.081 Y107.892 E0.00607
G1 X124.918 Y101.439 E0.32037
G1 X125.406 Y101.543 E0.02348
G1 X127.472 Y107.706 E0.30600
G1 X127.845 Y107.467 E0.02086
G1 X125.905 Y101.680 E0.28732
G1 X126.410 Y101.835 E0.02488
G1 X128.202 Y107.179 E0.26533
G1 X128.532 Y106.812 E0.02324
G1 X126.929 Y102.030 E0.23741
G1 X127.471 Y102.296 E0.02843
G1 X128.826 Y106.338 E0.20065
G1 X128.937 Y106.076 E0.01337
G1 X129.051 Y105.656 E0.02051
G1 X128.058 Y102.693 E0.14709
G1 X128.309 Y102.923 E0.01607
G1 X128.481 Y103.117 E0.01220
G1 X128.672 Y103.383 E0.01541
G1 X128.790 Y103.587 E0.01108
G1 X128.871 Y103.767 E0.00930
G1 X129.298 Y105.040 E0.06320
;BEFORE_LAYER_CHANGE
;0.5


G1 F8160
G1 X128.871 Y103.767 E-0.32822
G1 X128.790 Y103.587 E-0.04833
G1 X128.672 Y103.383 E-0.05754
G1 X128.481 Y103.117 E-0.08004
G1 X128.309 Y102.923 E-0.06336
G1 X128.058 Y102.693 E-0.08346
G1 X128.186 Y103.077 E-0.09906
G1 E-0.04000 F2100.00000
G1 Z0.950 F10200.000
;AFTER_LAYER_CHANGE
;0.5
G1 X120.344 Y112.346
G1 Z0.500
G1 E0.80000 F2100.00000
G1 F900
G1 X119.689 Y111.507 E0.02573
G1 X119.289 Y110.480 E0.02666
G1 X119.139 Y109.444 E0.02532
G1 X119.059 Y106.974 E0.05978
G1 X119.055 Y103.295 E0.08898
G1 X119.143 Y100.499 E0.06764
G1 X119.267 Y99.616 E0.02157
G1 X119.509 Y98.861 E0.01919
G1 X119.905 Y98.148 E0.01972
G1 X120.417 Y97.561 E0.01884
G1 X121.048 Y97.086 E0.01910
G1 X121.773 Y96.745 E0.01939
G1 X122.555 Y96.548 E0.01949
G1 X123.486 Y96.479 E0.02259
G1 X125.641 Y96.714 E0.05243
G1 X127.928 Y97.332 E0.05728
G1 X129.863 Y98.198 E0.05129
G1 X131.309 Y99.217 E0.04278
G1 X132.474 Y100.493 E0.04178
G1 X132.973 Y101.283 E0.02259
G1 X133.338 Y102.051 E0.02057
G1 X133.631 Y102.921 E0.02219
G1 X133.815 Y103.805 E0.02184
G1 X133.881 Y105.598 E0.04339
G1 X133.768 Y106.480 E0.02152
G1 X133.548 Y107.362 E0.02197
G1 X133.217 Y108.229 E0.02244
G1 X132.827 Y108.972 E0.02029
G1 X132.339 Y109.687 E0.02093
G1 X131.713 Y110.403 E0.02303
G1 X130.339 Y111.515 E0.04274
G1 X129.189 Y112.152 E0.03180
G1 X128.205 Y112.510 E0.02531
G1 X122.795 Y113.148 E0.13176
G1 X122.219 Y113.157 E0.01394
G1 X121.213 Y112.909 E0.02505
G1 X120.394 Y112.379 E0.02360
G1 F8160
G1 X119.689 Y111.507 E-0.27397
G1 X119.289 Y110.480 E-0.26948
G1 X119.162 Y109.604 E-0.21655
G1 E-0.04000 F2100.00000
G1 Z1.100 F10200.000
G1 X122.878 Y108.576
G1 Z0.500
G1 E0.80000 F2100.00000
M204 S800
G1 F900
G1 X122.827 Y106.524 E0.05349
