; generated by Slic3r Prusa Edition 1.39.2+ on 2018-07-27 at 09:29:02

; 

; external perimeters extrusion width = 0.45mm
; perimeters extrusion width = 0.45mm
; infill extrusion width = 0.45mm
; solid infill extrusion width = 0.45mm
; top infill extrusion width = 0.40mm
; first layer extrusion width = 0.42mm

M107
M115 U3.1.1-RC5 ; tell printer latest fw version
M201 X1000 Y1000 Z200 E5000 ; sets maximum accelerations, mm/sec^2
M203 X200 Y200 Z12 E120 ; sets maximum feedrates, mm/sec
M204 S1250 T1250 ; sets acceleration (S) and retract acceleration (T)
M205 X10 Y10 Z0.4 E2.5 ; sets the jerk limits, mm/sec
M205 S0 T0 ; sets the minimum extruding and travel feed rate, mm/sec
M83  ; extruder relative mode
M104 S215 ; set extruder temp
M140 S60 ; set bed temp
M190 S60 ; wait for bed temp
M109 S215 ; wait for extruder temp
G28 W ; home all without mesh bed level
G80 ; mesh bed leveling
G1 Y-3.0 F1000.0 ; go outside print area
G92 E0.0
G1 X60.0 E9.0  F1000.0 ; intro line
G1 X100.0 E12.5  F1000.0 ; intro line
G92 E0.0
M221 S95
M900 K30; Filament gcode
G21 ; set units to millimeters
G90 ; use absolute coordinates
M83 ; use relative distances for extrusion
;BEFORE_LAYER_CHANGE
;0.2


G1 E-0.80000 F2100.00000
G1 Z0.600 F10200.000
;AFTER_LAYER_CHANGE
;0.2
G1 X120.213 Y99.154
G1 Z0.200
G1 E0.80000 F2100.00000
M204 S1000
G1 F900
G1 X120.758 Y98.530 E0.02599
G1 X121.415 Y98.034 E0.02582
G1 X122.150 Y97.683 E0.02554
G1 X122.970 Y97.472 E0.02652
G1 X123.832 Y97.405 E0.02711
G1 X125.687 Y97.607 E0.05853
G1 X127.599 Y98.137 E0.06220
G1 X129.241 Y98.889 E0.05663
G1 X130.529 Y99.814 E0.04970
G1 X131.598 Y101.017 E0.05047
G1 X132.327 Y102.361 E0.04792
G1 X132.751 Y103.923 E0.05075
G1 X132.813 Y105.516 E0.04999
G1 X132.542 Y107.023 E0.04803
G1 X131.920 Y108.476 E0.04954
G1 X130.964 Y109.762 E0.05023
G1 X129.750 Y110.793 E0.04994
G1 X128.646 Y111.424 E0.03989
G1 X127.793 Y111.721 E0.02830
G1 X123.414 Y112.245 E0.13829
G1 X122.795 Y112.257 E0.01942
G1 X121.752 Y112.020 E0.03353
G1 X120.829 Y111.480 E0.03353
G1 X120.116 Y110.695 E0.03324
G1 X119.651 Y109.705 E0.03431
G1 X119.467 Y108.847 E0.02751
G1 X119.403 Y107.704 E0.03590
G1 X119.435 Y101.491 E0.19480
G1 X119.558 Y100.635 E0.02710
G1 X119.817 Y99.855 E0.02578
G1 X120.184 Y99.207 E0.02336
G1 X120.512 Y99.397 F10200.000
G1 F900
G1 X120.548 Y99.335 E0.00225
G1 X121.023 Y98.799 E0.02244
G1 X121.620 Y98.350 E0.02344
G1 X122.294 Y98.032 E0.02335
G1 X123.040 Y97.842 E0.02414
G1 X123.834 Y97.782 E0.02498
G1 X125.615 Y97.978 E0.05618
G1 X127.469 Y98.491 E0.06029
G1 X129.047 Y99.213 E0.05442
G1 X130.269 Y100.088 E0.04712
G1 X131.246 Y101.172 E0.04574
G1 X131.976 Y102.500 E0.04752
G1 X132.379 Y103.980 E0.04811
G1 X132.436 Y105.495 E0.04754
G1 X132.153 Y107.005 E0.04817
G1 X131.543 Y108.373 E0.04695
G1 X130.655 Y109.539 E0.04596
G1 X129.453 Y110.537 E0.04898
G1 X128.391 Y111.127 E0.03810
G1 X127.691 Y111.357 E0.02311
G1 X123.372 Y111.871 E0.13636
G1 X122.814 Y111.880 E0.01752
G1 X121.860 Y111.657 E0.03071
G1 X121.021 Y111.150 E0.03071
G1 X120.388 Y110.420 E0.03031
G1 X119.978 Y109.483 E0.03208
G1 X119.825 Y108.653 E0.02646
G1 X119.770 Y107.276 E0.04319
G1 X119.813 Y101.492 E0.18136
G1 X119.929 Y100.705 E0.02496
G1 X120.176 Y99.977 E0.02411
G1 X120.482 Y99.449 E0.01913
G1 X120.857 Y99.551 F10200.000
G1 F900
G1 X121.644 Y98.783 E0.03449
G1 X122.637 Y98.317 E0.03437
G1 X123.832 Y98.160 E0.03781
G1 X125.135 Y98.274 E0.04100
G1 X126.645 Y98.618 E0.04857
G1 X127.944 Y99.084 E0.04326
G1 X129.099 Y99.683 E0.04078
G1 X130.004 Y100.357 E0.03540
G1 X130.761 Y101.155 E0.03449
G1 X131.352 Y102.055 E0.03376
G1 X131.786 Y103.086 E0.03508
G1 X132.037 Y104.276 E0.03813
G1 X132.060 Y105.466 E0.03732
G1 X131.863 Y106.652 E0.03768
G1 X131.452 Y107.751 E0.03679
G1 X130.836 Y108.748 E0.03677
G1 X130.011 Y109.637 E0.03800
G1 X129.039 Y110.354 E0.03788
G1 X127.911 Y110.911 E0.03947
G1 X123.322 Y111.497 E0.14502
G1 X122.534 Y111.464 E0.02473
G1 X121.814 Y111.223 E0.02383
G1 X121.186 Y110.793 E0.02383
G1 X120.707 Y110.219 E0.02345
G1 X120.377 Y109.500 E0.02483
G1 X120.183 Y108.403 E0.03492
G1 X120.128 Y105.322 E0.09661
G1 X120.177 Y101.713 E0.11318
G1 X120.356 Y100.569 E0.03629
G1 X120.830 Y99.605 E0.03370
G1 X121.135 Y99.810 F10200.000
G1 F900
G1 X121.854 Y99.097 E0.03174
G1 X122.743 Y98.679 E0.03080
G1 X123.831 Y98.537 E0.03441
G1 X124.984 Y98.632 E0.03629
G1 X126.352 Y98.927 E0.04386
G1 X127.673 Y99.379 E0.04377
G1 X128.802 Y99.944 E0.03960
G1 X129.660 Y100.558 E0.03307
G1 X130.392 Y101.298 E0.03264
G1 X130.963 Y102.130 E0.03165
G1 X131.397 Y103.107 E0.03352
G1 X131.650 Y104.215 E0.03564
G1 X131.690 Y105.346 E0.03547
G1 X131.521 Y106.466 E0.03550
G1 X131.126 Y107.559 E0.03645
G1 X130.539 Y108.516 E0.03519
G1 X129.771 Y109.346 E0.03547
G1 X128.854 Y110.025 E0.03579
G1 X127.820 Y110.544 E0.03627
G1 X123.297 Y111.120 E0.14297
G1 X122.663 Y111.104 E0.01989
G1 X122.024 Y110.906 E0.02095
G1 X121.467 Y110.538 E0.02095
G1 X121.037 Y110.036 E0.02071
G1 X120.743 Y109.407 E0.02178
G1 X120.560 Y108.390 E0.03240
G1 X120.506 Y105.637 E0.08632
G1 X120.549 Y101.838 E0.11912
G1 X120.704 Y100.722 E0.03534
G1 X121.110 Y99.864 E0.02975
G1 F8160
G1 X121.854 Y99.097 E-0.26131
G1 X122.743 Y98.679 E-0.24015
G1 X123.791 Y98.542 E-0.25854
G1 E-0.04000 F2100.00000
G1 Z0.800 F10200.000
G1 X124.293 Y103.100
G1 Z0.200
G1 E0.80000 F2100.00000
G1 F900
G1 X124.710 Y103.130 E0.01311
G1 X125.256 Y103.225 E0.01738
G1 X125.751 Y103.358 E0.01607
G1 X126.177 Y103.518 E0.01425
G1 X126.496 Y103.687 E0.01134
G1 X126.710 Y103.846 E0.00834
G1 X126.904 Y104.050 E0.00882
G1 X127.043 Y104.263 E0.00798
G1 X127.149 Y104.525 E0.00884
G1 X127.208 Y104.836 E0.00995
G1 X127.204 Y105.195 E0.01126
G1 X127.139 Y105.505 E0.00993
G1 X127.029 Y105.761 E0.00874
G1 X126.860 Y106.001 E0.00920
G1 X126.622 Y106.224 E0.01024
G1 X126.342 Y106.402 E0.01038
G1 X126.018 Y106.548 E0.01114
G1 X125.578 Y106.694 E0.01455
G1 X125.077 Y106.811 E0.01613
G1 X124.788 Y106.839 E0.00912
G1 X124.556 Y106.886 E0.00742
G1 X124.293 Y106.901 E0.00826
G1 X124.217 Y105.614 E0.04041
G1 X124.222 Y104.189 E0.04467
G1 X124.284 Y103.159 E0.03236
G1 X123.950 Y102.860 F10200.000
G1 F900
G1 X123.994 Y102.784 E0.00274
G1 X124.070 Y102.743 E0.00273
G1 X124.285 Y102.721 E0.00676
G1 X124.756 Y102.756 E0.01482
G1 X125.337 Y102.857 E0.01850
G1 X125.867 Y102.998 E0.01718
G1 X126.332 Y103.174 E0.01559
G1 X126.698 Y103.368 E0.01299
G1 X126.960 Y103.563 E0.01025
G1 X127.201 Y103.815 E0.01092
G1 X127.378 Y104.088 E0.01022
G1 X127.512 Y104.418 E0.01116
G1 X127.585 Y104.803 E0.01229
G1 X127.581 Y105.236 E0.01359
G1 X127.501 Y105.620 E0.01229
G1 X127.360 Y105.946 E0.01115
G1 X127.147 Y106.250 E0.01164
G1 X126.854 Y106.524 E0.01258
G1 X126.522 Y106.734 E0.01232
G1 X126.156 Y106.900 E0.01259
G1 X125.681 Y107.058 E0.01571
G1 X125.138 Y107.184 E0.01746
G1 X124.843 Y107.212 E0.00928
G1 X124.604 Y107.261 E0.00765
G1 X124.284 Y107.279 E0.01006
G1 X124.085 Y107.261 E0.00628
G1 X124.001 Y107.226 E0.00284
G1 X123.968 Y107.185 E0.00164
G1 X123.934 Y107.075 E0.00363
G1 X123.893 Y106.738 E0.01064
G1 X123.840 Y105.623 E0.03501
G1 X123.845 Y104.178 E0.04530
G1 X123.906 Y103.132 E0.03285
G1 X123.941 Y102.919 E0.00676
G1 X124.037 Y102.847 F10200.000
G1 F8160
G1 X123.994 Y102.784 E-0.03547
G1 X124.070 Y102.743 E-0.02126
G1 X124.285 Y102.721 E-0.05273
G1 X124.756 Y102.756 E-0.11554
G1 X125.337 Y102.857 E-0.14423
G1 X125.867 Y102.998 E-0.13399
G1 X126.332 Y103.174 E-0.12156
G1 X126.698 Y103.368 E-0.10130
G1 X126.809 Y103.451 E-0.03392
G1 E-0.04000 F2100.00000
G1 Z0.800 F10200.000
G1 X127.049 Y104.605
G1 Z0.200
G1 E0.80000 F2100.00000
G1 F900
G1 X126.447 Y104.003 E0.02865
G1 X126.345 Y103.927 E0.00428
G1 X126.060 Y103.776 E0.01084
G1 X125.665 Y103.627 E0.01422
G1 X125.438 Y103.566 E0.00790
G1 X126.923 Y105.051 E0.07066
G1 X126.922 Y105.165 E0.00382
G1 X126.868 Y105.419 E0.00875
G1 X126.823 Y105.524 E0.00384
G1 X124.718 Y103.419 E0.10018
G1 X124.551 Y103.402 E0.00563
G1 X124.528 Y103.801 E0.01343
G1 X126.592 Y105.865 E0.09822
G1 X126.448 Y106.000 E0.00663
G1 X126.268 Y106.114 E0.00716
G1 X124.504 Y104.349 E0.08395
G1 X124.502 Y104.919 E0.01919
G1 X125.879 Y106.297 E0.06552
G1 X125.445 Y106.435 E0.01532
G1 X124.500 Y105.490 E0.04497
G1 X124.528 Y106.090 E0.02022
G1 X125.122 Y106.684 E0.02827
M106 S255
;BEFORE_LAYER_CHANGE
;0.35


G1 F8160
G1 X124.528 Y106.090 E-0.20546
G1 X124.500 Y105.490 E-0.14693
G1 X125.445 Y106.435 E-0.32679
G1 X125.760 Y106.334 E-0.08082
G1 E-0.04000 F2100.00000
G1 Z0.800 F10200.000
;AFTER_LAYER_CHANGE
;0.35
M104 S210 ; set temperature
G1 X121.752 Y112.020
G1 Z0.350
G1 E0.80000 F2100.00000
G1 F900
G1 X120.829 Y111.480 E0.02586
G1 X120.116 Y110.695 E0.02564
G1 X119.651 Y109.705 E0.02646
G1 X119.467 Y108.847 E0.02122
G1 X119.403 Y107.704 E0.02769
G1 X119.435 Y101.491 E0.15026
G1 X119.558 Y100.635 E0.02090
G1 X119.817 Y99.855 E0.01988
G1 X120.213 Y99.154 E0.01947
G1 X120.758 Y98.530 E0.02005
G1 X121.415 Y98.034 E0.01991
G1 X122.150 Y97.683 E0.01970
G1 X122.970 Y97.472 E0.02046
G1 X123.832 Y97.405 E0.02091
G1 X125.687 Y97.607 E0.04514
G1 X127.599 Y98.137 E0.04798
G1 X129.241 Y98.889 E0.04368
G1 X130.529 Y99.814 E0.03834
G1 X131.598 Y101.017 E0.03893
G1 X132.327 Y102.361 E0.03696
G1 X132.751 Y103.923 E0.03914
G1 X132.813 Y105.516 E0.03856
G1 X132.542 Y107.023 E0.03704
G1 X131.920 Y108.476 E0.03822
G1 X130.964 Y109.762 E0.03874
G1 X129.750 Y110.793 E0.03852
G1 X128.646 Y111.424 E0.03077
G1 X127.793 Y111.721 E0.02183
G1 X123.414 Y112.245 E0.10667
G1 X122.795 Y112.257 E0.01498
G1 X121.811 Y112.033 E0.02441
G1 F8160
G1 X120.829 Y111.480 E-0.27547
G1 X120.116 Y110.695 E-0.25921
G1 X119.724 Y109.861 E-0.22532
G1 E-0.04000 F2100.00000
G1 Z0.950 F10200.000
G1 X123.810 Y106.982
G1 Z0.350
G1 E0.80000 F2100.00000
M204 S800
G1 F900
G1 X123.780 Y105.912 E0.02788
G1 X123.785 Y103.737 E0.05668
G1 X123.855 Y102.102 E0.04265
G1 X124.030 Y102.087 E0.00458
G1 X124.648 Y102.146 E0.01616
G1 X125.467 Y102.320 E0.02184
G1 X126.177 Y102.547 E0.01942
G1 X126.770 Y102.809 E0.01689
G1 X127.203 Y103.076 E0.01327
G1 X127.540 Y103.371 E0.01166
G1 X127.804 Y103.700 E0.01098
G1 X127.998 Y104.070 E0.01090
G1 X128.131 Y104.523 E0.01230
G1 X128.163 Y104.757 E0.00614
G1 X128.173 Y105.048 E0.00760
G1 X128.152 Y105.339 E0.00759
G1 X128.112 Y105.570 E0.00611
G1 X127.961 Y106.017 E0.01231
G1 X127.848 Y106.230 E0.00626
G1 X127.709 Y106.434 E0.00644
G1 X127.539 Y106.633 E0.00683
G1 X127.207 Y106.923 E0.01149
G1 X126.983 Y107.072 E0.00700
G1 X126.790 Y107.170 E0.00563
G1 X126.389 Y106.919 E0.01234
G1 X126.094 Y106.793 E0.00833
G1 X125.830 Y106.713 E0.00720
G1 X125.475 Y106.646 E0.00942
G1 X124.950 Y106.636 E0.01366
G1 X124.603 Y106.686 E0.00914
G1 X124.296 Y106.765 E0.00827
G1 X123.865 Y106.958 E0.01231
M204 S1000
G1 X124.435 Y107.161 F10200.000
M204 S800
G1 F900
G1 X123.982 Y107.362 E0.01290
G1 X123.774 Y107.498 E0.00648
G1 X123.422 Y107.821 E0.01244
G1 X123.362 Y105.918 E0.04961
G1 X123.367 Y103.729 E0.05703
G1 X123.426 Y102.107 E0.04230
G1 X123.483 Y101.847 E0.00694
G1 X123.512 Y101.797 E0.00150
G1 X123.553 Y101.755 E0.00152
G1 X123.689 Y101.697 E0.00386
G1 X124.024 Y101.668 E0.00875
G1 X124.352 Y101.686 E0.00856
G1 X124.718 Y101.733 E0.00961
G1 X125.575 Y101.916 E0.02283
G1 X126.326 Y102.156 E0.02055
G1 X126.965 Y102.439 E0.01821
G1 X127.452 Y102.739 E0.01491
G1 X127.843 Y103.081 E0.01353
G1 X128.147 Y103.461 E0.01268
G1 X128.386 Y103.911 E0.01328
G1 X128.478 Y104.176 E0.00730
G1 X128.542 Y104.446 E0.00725
G1 X128.580 Y104.721 E0.00722
G1 X128.591 Y105.056 E0.00873
G1 X128.568 Y105.390 E0.00873
G1 X128.520 Y105.663 E0.00722
G1 X128.444 Y105.931 E0.00726
G1 X128.341 Y106.192 E0.00733
G1 X128.207 Y106.445 E0.00745
G1 X128.042 Y106.688 E0.00766
G1 X127.843 Y106.921 E0.00797
G1 X127.453 Y107.261 E0.01347
G1 X127.194 Y107.433 E0.00813
G1 X126.730 Y107.669 E0.01355
G1 X126.493 Y107.465 E0.00814
G1 X126.200 Y107.292 E0.00886
G1 X125.951 Y107.187 E0.00704
G1 X125.730 Y107.119 E0.00603
G1 X125.431 Y107.063 E0.00791
G1 X124.977 Y107.054 E0.01186
G1 X124.686 Y107.096 E0.00765
G1 X124.493 Y107.146 E0.00520
M204 S1000
G1 X124.129 Y106.902 F10200.000
G1 X124.541 Y106.573
G1 F1800
G1 X124.088 Y105.894 E0.04108
G1 X124.090 Y105.098 E0.04001
G1 X124.910 Y106.330 E0.07446
G1 X125.447 Y106.337 E0.02699
G1 X124.092 Y104.303 E0.12295
G1 X124.101 Y103.519 E0.03943
G1 X126.062 Y106.461 E0.17786
G1 X126.531 Y106.644 E0.02538
G1 X126.806 Y106.816 E0.01628
G1 X126.823 Y106.807 E0.00101
G1 X124.129 Y102.763 E0.24447
G1 X124.142 Y102.402 E0.01818
G1 X124.439 Y102.430 E0.01498
G1 X127.182 Y106.546 E0.24888
G1 X127.489 Y106.210 E0.02294
G1 X125.048 Y102.546 E0.22149
G1 X125.388 Y102.618 E0.01750
G1 X125.693 Y102.716 E0.01609
G1 X127.727 Y105.769 E0.18459
G1 X127.847 Y105.293 E0.02468
G1 X127.856 Y105.164 E0.00653
G1 X126.403 Y102.984 E0.13177
G1 X126.626 Y103.083 E0.01225
G1 X127.020 Y103.325 E0.02327
G1 X127.317 Y103.585 E0.01984
G1 X127.429 Y103.725 E0.00901
G1 X128.005 Y104.589 E0.05224
;BEFORE_LAYER_CHANGE
;0.5


G1 F8160
G1 X127.429 Y103.725 E-0.25389
G1 X127.317 Y103.585 E-0.04378
G1 X127.020 Y103.325 E-0.09642
G1 X126.626 Y103.083 E-0.11310
G1 X126.403 Y102.984 E-0.05953
G1 X126.842 Y103.642 E-0.19329
G1 E-0.04000 F2100.00000
G1 Z0.950 F10200.000
;AFTER_LAYER_CHANGE
;0.5
G1 X132.751 Y103.923
G1 Z0.500
G1 E0.80000 F2100.00000
G1 F900
G1 X132.813 Y105.516 E0.03856
G1 X132.542 Y107.023 E0.03704
G1 X131.920 Y108.476 E0.03822
G1 X130.964 Y109.762 E0.03874
G1 X129.750 Y110.793 E0.03852
G1 X128.646 Y111.424 E0.03077
G1 X127.793 Y111.721 E0.02183
G1 X123.414 Y112.245 E0.10667
G1 X122.795 Y112.257 E0.01498
G1 X121.752 Y112.020 E0.02586
G1 X120.829 Y111.480 E0.02586
G1 X120.116 Y110.695 E0.02564
G1 X119.651 Y109.705 E0.02646
G1 X119.467 Y108.847 E0.02122
G1 X119.403 Y107.704 E0.02769
G1 X119.435 Y101.491 E0.15026
G1 X119.558 Y100.635 E0.02090
G1 X119.817 Y99.855 E0.01988
G1 X120.213 Y99.154 E0.01947
G1 X120.758 Y98.530 E0.02005
G1 X121.415 Y98.034 E0.01991
G1 X122.150 Y97.683 E0.01970
G1 X122.970 Y97.472 E0.02046
G1 X123.832 Y97.405 E0.02091
G1 X125.687 Y97.607 E0.04514
G1 X127.599 Y98.137 E0.04798
G1 X129.241 Y98.889 E0.04368
G1 X130.529 Y99.814 E0.03834
G1 X131.598 Y101.017 E0.03893
G1 X132.327 Y102.361 E0.03696
G1 X132.735 Y103.865 E0.03769
G1 F8160
G1 X132.813 Y105.516 E-0.40412
G1 X132.555 Y106.948 E-0.35588
G1 E-0.04000 F2100.00000
G1 Z1.100 F10200.000
G1 X123.586 Y101.678
G1 Z0.500
G1 E0.80000 F2100.00000
M204 S800
G1 F900
G1 X123.603 Y101.581 E0.00257
G1 X123.874 Y101.559 E0.00709
G1 X124.527 Y101.618 E0.01707
G1 X125.369 Y101.791 E0.02240
G1 X126.199 Y102.046 E0.02261
G1 X126.591 Y102.201 E0.01101
G1 X126.969 Y102.378 E0.01088
G1 X127.486 Y102.689 E0.01571
G1 X127.892 Y103.033 E0.01388
G1 X128.203 Y103.406 E0.01264
G1 X128.452 Y103.855 E0.01337
G1 X128.549 Y104.117 E0.00727
G1 X128.618 Y104.386 E0.00725
G1 X128.661 Y104.659 E0.00721
G1 X128.679 Y105.000 E0.00889
G1 X128.661 Y105.341 E0.00889
G1 X128.618 Y105.614 E0.00721
G1 X128.549 Y105.883 E0.00725
G1 X128.452 Y106.145 E0.00727
G1 X128.205 Y106.591 E0.01328
G1 X128.017 Y106.832 E0.00797
G1 X127.850 Y107.009 E0.00634
G1 X127.595 Y107.230 E0.00879
G1 X127.368 Y107.391 E0.00723
G1 X127.251 Y107.461 E0.00357
G1 X127.128 Y107.325 E0.00479
G1 X126.784 Y107.046 E0.01154
G1 X126.534 Y106.891 E0.00764
G1 X126.114 Y106.702 E0.01202
G1 X125.753 Y106.600 E0.00977
G1 X125.345 Y106.543 E0.01073
G1 X124.870 Y106.551 E0.01238
G1 X124.449 Y106.627 E0.01116
G1 X124.075 Y106.751 E0.01026
G1 X123.742 Y106.911 E0.00963
G1 X123.547 Y107.045 E0.00617
G1 X123.531 Y106.331 E0.01860
G1 X123.534 Y103.376 E0.07700
G1 X123.583 Y101.738 E0.04270
M204 S1000
G1 F8160
G1 X123.603 Y101.581 E-0.03873
G1 X123.874 Y101.559 E-0.06650
G1 X124.527 Y101.618 E-0.16019
G1 X125.369 Y101.791 E-0.21020
G1 X126.199 Y102.046 E-0.21217
G1 X126.473 Y102.154 E-0.07221
G1 E-0.04000 F2100.00000
G1 Z1.100 F10200.000
G1 X124.911 Y106.968
G1 Z0.500
G1 E0.80000 F2100.00000
M204 S800
G1 F900
G1 X124.552 Y107.033 E0.00950
G1 X124.232 Y107.139 E0.00878
G1 X123.952 Y107.274 E0.00809
G1 X123.621 Y107.501 E0.01047
G1 X123.461 Y107.643 E0.00557
G1 X123.229 Y107.901 E0.00904
